teeny/solid/battery-2.svg

<svg width="15" height="15" viewBox="0 0 15 15" fill="none" xmlns="http://www.w3.org/2000/svg">
<path fill-rule="evenodd" clip-rule="evenodd" d="M0 11.5C0 12.3284 0.671573 13 1.5 13L11.5 13C12.3284 13 13 12.3284 13 11.5V3.5C13 2.67157 12.3284 2 11.5 2H1.5C0.671572 2 0 2.67157 0 3.5V11.5ZM3 4V11H2V4H3ZM5 4V11H4V4H5Z" fill="black"/>
<path d="M15 5V10H14V5H15Z" fill="black"/>
</svg>

<svg viewBox="0 0 15 15" xmlns="http://www.w3.org/2000/svg"><path fill-rule="evenodd" d="M0 11.5c0 .82.67 1.5 1.5 1.5h10c.82 0 1.5-.68 1.5-1.5v-8c0-.83-.68-1.5-1.5-1.5h-10C.67 2 0 2.67 0 3.5v8ZM3 4v7H2V4h1Zm2 0v7H4V4h1Z"/><path d="M15 5v5h-1V5h1Z"/></svg>
